X: 15
T:Panic Polka
C:Blowzabella
M:2/4
L:1/8
R:Polka
Z:Steve Mansfield
K:G %Transposed from C
"G"DG GF/G/ |"D" AF "G"GA/B/ |"C" cA"G" BG |"D" A>G F/E/D |"G" DG GF/G/ |
"D"AF "Em"GA/B/ |"Am" cA"G" BG | "D"AF "G" G2 :: "G"Bc/d/ Bc/d/ | "G"BG "D"F>G |"Am"A>B "C"cE- |
"C" EF "D"ED | "G"Bc/d/ Bc/d/ | "G"BG "D"F>G | "Am"AB "C"cE- |"D"EF "G"G2 :|
